!!!OTL: ES ZOGEN DREI REITER WOL UEBER DEN RHEIN
!!!ARE: Europa, Mitteleuropa, Deutschland, Wetzlar, Atzbach
!!!SCT: E0042G
!!!YEM: Copyright 1995, estate of Helmut Schaffrath.
**kern
*ICvox
*Ivox
*M6/8
*k[f#]
*G:
{8d
=1
8.d
16e
8f#
8g
8a
8b
=2
8.a
16g
16f#
16e
4d}
{16d
16f#
=3
8.a
16g
8a
4dd
8dd
=4
4b
16a
16f#
4g}
{16g
16b
=5
8.dd
16b
8dd
8.ee
16dd
8ee
=6
4dd
8b
4g}
{16b
16dd
=7
8.gg
16dd
8b
8.dd
16cc
8b
=8
4.a
4g}
{16g
16b
=9
8.dd
16b
8dd
8.ee
16dd
8ee
=10
4dd
8b
4g}
{16b
16dd
=11
8.gg
16dd
8b
8.dd
16cc
8b
=12
4.a
4g}
==
!!!AGN: erzaehlendes Volks - Lied, Ritter -, Raeuber - Sage, Ballade ?
!!!ONB: ESAC (Essen Associative Code) Database: ERK1
!!!AMT: compound duple
!!!AIN: vox
!!!EED: Helmut Schaffrath
!!!EEV: 1.0
*-
